X: 3077
T: The BRIG O'KYLE
C: Hugh Dunlop
Q:"Strathspey."
R: Strathspey.
%R:strathspey, shottish
B: James Kerr "Merry Melodies" v.3 p.10 #77
Z: 2016 John Chambers <jc:trillian.mit.edu>
M: C
L: 1/8
K: A
[|\
vA,>vCuE>uF E>A,C>E | A>Bc>e d>BB>c |\
A,>CE>F E>A,C>E | (3dcB (3cBA (3FBA (3GFE |\
A,>CE>F E>A,C>E | A>Bc>e d>BB>c |
a>ga>e f>ae>d | c>eB>e c<AAz |]\
c>ee>f e>Ac>A | c>e (ef/g/) a>ed>B |\
c>ee>f e>Ac>A |
G>BE>B B>cd>B |\
c>ee>f e>Ac>A | c>e (ef/g/) a>ed>B |\
(3agf (3edc (3dcB (3AGF | E<A, d>B c<AAz |]

%%sep 1 1 500
%%sep 1 1 500

